packages/xm_dkfz_net_site/Resources/Public/Icons/printer.svg

<svg width="100%" height="100%" viewBox="0 0 24 24" version="1.1" xmlns="http://www.w3.org/2000/svg" xmlns:xlink="http://www.w3.org/1999/xlink" xml:space="preserve" xmlns:serif="http://www.serif.com/" style="fill-rule:evenodd;clip-rule:evenodd;stroke-linejoin:round;stroke-miterlimit:2;">
    <path d="M4.364,7.636L4.364,1.091C4.364,0.488 4.852,0 5.455,0L18.545,0C19.148,0 19.636,0.488 19.636,1.091L19.636,7.636L20.727,7.636C22.535,7.636 24,9.102 24,10.909L24,16.364C24,18.171 22.535,19.636 20.727,19.636L19.636,19.636L19.636,22.909C19.636,23.512 19.148,24 18.545,24L5.455,24C4.852,24 4.364,23.512 4.364,22.909L4.364,19.636L3.273,19.636C1.465,19.636 0,18.171 0,16.364L0,10.909C0,9.102 1.465,7.636 3.273,7.636L4.364,7.636ZM6.545,15.273L6.545,21.818L17.455,21.818L17.455,15.273L6.545,15.273ZM19.636,17.455L20.727,17.455C21.33,17.455 21.818,16.966 21.818,16.364C21.818,16.364 21.818,10.909 21.818,10.909C21.818,10.307 21.33,9.818 20.727,9.818L3.273,9.818C2.67,9.818 2.182,10.307 2.182,10.909C2.182,10.909 2.182,16.364 2.182,16.364C2.182,16.966 2.67,17.455 3.273,17.455L4.364,17.455L4.364,14.182C4.364,13.579 4.852,13.091 5.455,13.091L18.545,13.091C19.148,13.091 19.636,13.579 19.636,14.182L19.636,17.455ZM17.455,7.636L17.455,2.182L6.545,2.182L6.545,7.636L17.455,7.636Z"/>
</svg>

<svg xmlns="http://www.w3.org/2000/svg" xml:space="preserve" style="fill-rule:evenodd;clip-rule:evenodd;stroke-linejoin:round;stroke-miterlimit:2" viewBox="0 0 24 24"><path d="M4.36 7.64V1.09c0-.6.5-1.09 1.1-1.09h13.09c.6 0 1.09.49 1.09 1.1v6.54h1.09c1.8 0 3.27 1.46 3.27 3.27v5.45c0 1.81-1.46 3.28-3.27 3.28h-1.1v3.27c0 .6-.48 1.09-1.08 1.09H5.45c-.6 0-1.09-.49-1.09-1.1v-3.26H3.27A3.27 3.27 0 0 1 0 16.36v-5.45c0-1.8 1.47-3.27 3.27-3.27h1.1Zm2.18 7.63v6.55h10.91v-6.55H6.55Zm13.1 2.18h1.09c.6 0 1.09-.48 1.09-1.09v-5.45c0-.6-.49-1.1-1.1-1.1H3.28c-.6 0-1.09.5-1.09 1.1v5.45c0 .6.49 1.1 1.1 1.1h1.08v-3.28c0-.6.5-1.09 1.1-1.09h13.09c.6 0 1.09.49 1.09 1.1v3.26Zm-2.19-9.81V2.18H6.55v5.46h10.9Z"/></svg>
